X: 46
T:Chuntering Charlie
% Nottingham Music Database
S:John Kirkpatrick, via Phil Rowe
M:6/8
K:C
"C"cGE "G"B2A|"C"GEC "F"F2E|"G"DB,G, DB,G,|"C"CDE "G"D2G|
"C"cGE "G"B2A|"C"GEC "F"F2E|"G"DB,G, DB,G,|"G"GAB "C"c3::
"G"DDD D2E|F2G A2B|"C"cGE "F"B2A|"C"GEC "F"F2E|
"G"DDD D2E|F2G A2B|"C"cGE "F"B2A|"G"GAB "C"c3::
"F"A2c A2G|F2A F2E|"F"D2F D2C|"G"B,2D G,A,B,|
"C"C2E "G"D2F|"C"E2G "F"F2A| "G"BAG BAG|"G"BAG "C"c3:|<end>
<start>
